svg/editor/text_area_fill.svg

<svg xmlns="http://www.w3.org/2000/svg" width="24" height="24" viewBox="0 0 24 24"><g fill="none"><path d="M24,0 L24,24 L0,24 L0,0 L24,0 Z M12.5935,23.2578 L12.5819,23.2595 L12.5109,23.295 L12.4919,23.2987 L12.4767,23.295 L12.4057,23.2595 C12.3958,23.2564 12.387,23.259 12.3821,23.2649 L12.378,23.2758 L12.3609,23.7031 L12.3659,23.7235 L12.3769,23.7357 L12.4805,23.8097 L12.4953,23.8136 L12.5071,23.8097 L12.6107,23.7357 L12.6233,23.7197 L12.6267,23.7031 L12.6096,23.2758 C12.6076,23.2657 12.601,23.2593 12.5935,23.2578 Z M12.8584,23.1453 L12.8445,23.1473 L12.6598,23.2397 L12.6499,23.2499 L12.6472,23.2611 L12.6651,23.6906 L12.6699,23.7034 L12.6784,23.7105 L12.8793,23.8032 C12.8914,23.8069 12.9022,23.803 12.9078,23.7952 L12.9118,23.7812 L12.8777,23.1665 C12.8753,23.1546 12.8674,23.147 12.8584,23.1453 Z M12.143,23.1473 C12.1332,23.1424 12.1222,23.1453 12.1156,23.1526 L12.1099,23.1665 L12.0758,23.7812 C12.0751,23.7927 12.0828,23.8019 12.0926,23.8046 L12.1083,23.8032 L12.3092,23.7105 L12.3186,23.7024 L12.3225,23.6906 L12.3404,23.2611 L12.3372,23.2485 L12.3278,23.2397 L12.143,23.1473 Z"/><path fill="#09244B" d="M7,3 C7.55228,3 8,3.44772 8,4 L16,4 C16,3.44772 16.4477,3 17,3 L20,3 C20.5523,3 21,3.44772 21,4 L21,7 C21,7.55228 20.5523,8 20,8 L20,16 C20.5523,16 21,16.4477 21,17 L21,20 C21,20.5523 20.5523,21 20,21 L17,21 C16.4477,21 16,20.5523 16,20 L8,20 C8,20.5523 7.55228,21 7,21 L4,21 C3.44772,21 3,20.5523 3,20 L3,17 C3,16.4477 3.44772,16 4,16 L4,8 C3.44772,8 3,7.55228 3,7 L3,4 C3,3.44772 3.44772,3 4,3 L7,3 Z M19,18 L18,18 L18,19 L19,19 L19,18 Z M6,18 L5,18 L5,19 L6,19 L6,18 Z M12,7 C11.3256667,7 10.7193671,7.39562382 10.4439562,8.00153967 L10.3901,8.13453 L8.05826,14.6637 C7.8725,15.1838 8.14355,15.756 8.66366,15.9417 C9.14661929,16.1142286 9.67451015,15.8927974 9.8961809,15.443863 L9.94174,15.3363 L10.419,14 L13.581,14 L14.0583,15.3363 C14.244,15.8564 14.8162,16.1275 15.3363,15.9417 C15.81925,15.7692643 16.087501,15.2635709 15.9745967,14.7757876 L15.9417,14.6637 L13.6099,8.13453 C13.3669,7.45416 12.7225,7 12,7 Z M12,9.57321 L12.8667,12 L11.1333,12 L12,9.57321 Z M6,5 L5,5 L5,6 L6,6 L6,5 Z M19,5 L18,5 L18,6 L19,6 L19,5 Z"/></g></svg>

<svg xmlns="http://www.w3.org/2000/svg" width="24" height="24"><g fill="none"><path d="M24 0v24H0V0zM12.594 23.258l-.012.002-.071.035-.02.004-.014-.004-.071-.036c-.01-.003-.019 0-.024.006l-.004.01-.017.428.005.02.01.013.104.074.015.004.012-.004.104-.074.012-.016.004-.017-.017-.427c-.002-.01-.009-.017-.016-.018m.264-.113-.014.002-.184.093-.01.01-.003.011.018.43.005.012.008.008.201.092c.012.004.023 0 .029-.008l.004-.014-.034-.614c-.003-.012-.01-.02-.02-.022m-.715.002a.023.023 0 0 0-.027.006l-.006.014-.034.614c0 .012.007.02.017.024l.015-.002.201-.093.01-.008.003-.011.018-.43-.003-.012-.01-.01z"/><path fill="#09244B" d="M7 3a1 1 0 0 1 1 1h8a1 1 0 0 1 1-1h3a1 1 0 0 1 1 1v3a1 1 0 0 1-1 1v8a1 1 0 0 1 1 1v3a1 1 0 0 1-1 1h-3a1 1 0 0 1-1-1H8a1 1 0 0 1-1 1H4a1 1 0 0 1-1-1v-3a1 1 0 0 1 1-1V8a1 1 0 0 1-1-1V4a1 1 0 0 1 1-1zm12 15h-1v1h1zM6 18H5v1h1zm6-11a1.71 1.71 0 0 0-1.556 1.002l-.054.133-2.332 6.529a1 1 0 0 0 1.838.78l.046-.108.477-1.336h3.162l.477 1.336a1 1 0 0 0 1.917-.56l-.033-.112-2.332-6.53A1.71 1.71 0 0 0 12 7m0 2.573L12.867 12h-1.734zM6 5H5v1h1zm13 0h-1v1h1z"/></g></svg>
